src/assets/graduate.svg

<svg width="300" height="300" viewBox="0 0 300 300" fill="none" xmlns="http://www.w3.org/2000/svg">
<g clip-path="url(#clip0)">
<path d="M300 212.069C300 240.621 295.345 263.793 289.655 263.793C254.942 258.246 219.9 254.997 184.759 254.069L171.931 247.966C179.079 235.272 176.408 219.313 165.517 209.638C165.362 192.466 173.379 177.776 170.121 170.483C210.158 169.986 250.106 166.597 289.655 160.345C295.345 160.345 300 183.517 300 212.069Z" fill="#F8E8AB"/>
<path d="M77.586 88.2413L3.46534 61.7586C1.41973 61.0161 0.0576172 59.0727 0.0576172 56.8965C0.0576172 54.7203 1.41973 52.7769 3.46534 52.0344L148.189 0.310293C149.361 -0.103431 150.639 -0.103431 151.81 0.310293L296.534 52.0344C298.58 52.7769 299.942 54.7203 299.942 56.8965C299.942 59.0727 298.58 61.0161 296.534 61.7586L263.431 73.6034L249.103 78.7241L222.414 88.2413H77.586Z" fill="#393F4B"/>
<path d="M11.0689 263.638L10.3447 263.793C10.5947 263.797 10.8424 263.744 11.0689 263.638Z" fill="#F8E8AB"/>
<path d="M10.9654 160.448C10.7568 160.425 10.5496 160.39 10.3447 160.345C10.5551 160.354 10.7635 160.389 10.9654 160.448Z" fill="#F8E8AB"/>
<path d="M11.0171 160.448C48.2465 166.315 85.835 169.616 123.517 170.328C126.931 177.879 139.655 193.759 139.655 212.069C139.655 213.31 139.655 214.5 139.603 215.69C133.215 225.388 132.776 237.841 138.465 247.966L125.69 253.759C87.3018 254.43 49.0052 257.73 11.0688 263.638L11.0171 160.448Z" fill="#F8E8AB"/>
<path d="M129.258 215.69C129.31 214.5 129.31 213.31 129.31 212.069C129.883 197.921 127.921 183.785 123.517 170.328C132 170.586 140.845 170.69 150 170.69C156.879 170.69 163.603 170.638 170.121 170.483C174.296 183.1 176.222 196.354 175.81 209.638L129.258 215.69Z" fill="#BA3A23"/>
<path d="M155.173 263.793L141.414 296.741C140.649 298.695 138.779 299.993 136.682 300.027C134.584 300.061 132.673 298.824 131.845 296.896L128.069 288.207L119.379 291.931C117.468 292.769 115.24 292.367 113.741 290.914C112.243 289.461 111.773 287.246 112.552 285.31L125.69 253.759L128.121 247.965L155.173 263.793Z" fill="#BA3A23"/>
<path d="M182.224 247.965L184.759 254.069L197.793 285.31C198.572 287.246 198.102 289.461 196.603 290.914C195.105 292.367 192.877 292.769 190.965 291.931L182.276 288.207L178.5 296.896C177.672 298.824 175.761 300.061 173.663 300.027C171.566 299.993 169.696 298.695 168.931 296.741L155.172 263.793L182.224 247.965Z" fill="#BA3A23"/>
<path d="M77.5864 124.138V67.2414C77.5864 58.6552 110.017 51.7241 150 51.7241C189.983 51.7241 222.414 58.6552 222.414 67.2414V124.138H77.5864Z" fill="#464F5E"/>
<path d="M258.621 77.5862C255.765 77.5862 253.449 75.2704 253.449 72.4137V38.4827C253.449 35.6261 255.765 33.3103 258.621 33.3103C261.478 33.3103 263.794 35.6261 263.794 38.4827V72.4137C263.794 75.2704 261.478 77.5862 258.621 77.5862Z" fill="#EDC100"/>
<path d="M248.276 82.7586V98.2759C248.276 101.133 250.592 103.448 253.448 103.448H263.793C266.65 103.448 268.966 101.133 268.966 98.2759V82.7586C268.966 77.0454 264.334 72.4138 258.621 72.4138C252.907 72.4138 248.276 77.0454 248.276 82.7586Z" fill="#F1D24B"/>
<path d="M150 139.655C189.993 139.655 222.414 132.708 222.414 124.138C222.414 115.568 189.993 108.621 150 108.621C110.007 108.621 77.5864 115.568 77.5864 124.138C77.5864 132.708 110.007 139.655 150 139.655Z" fill="#393F4B"/>
<path d="M20.6897 212.069C20.6897 239.379 16.4483 261.776 11.069 263.638C10.8425 263.744 10.5948 263.797 10.3448 263.793C4.65517 263.793 0 240.621 0 212.069C0 183.517 4.65517 160.345 10.3448 160.345C10.4017 160.338 10.4586 160.357 10.5 160.397C10.6035 160.397 10.7586 160.448 10.9655 160.448H11.0172C16.3966 162.259 20.6897 184.655 20.6897 212.069V212.069Z" fill="#E2BE50"/>
<path d="M186.207 232.759C186.207 249.899 172.313 263.793 155.173 263.793C138.033 263.793 124.138 249.899 124.138 232.759C124.138 215.619 138.033 201.724 155.173 201.724C162.801 201.679 170.168 204.504 175.811 209.638C182.431 215.498 186.217 223.918 186.207 232.759Z" fill="#E04C34"/>
</g>
<defs>
<clipPath id="clip0">
<rect width="300" height="300" fill="white"/>
</clipPath>
</defs>
</svg>

<svg width="300" height="300" fill="none" xmlns="http://www.w3.org/2000/svg"><g clip-path="url(#a)"><path d="M300 212.069c0 28.552-4.655 51.724-10.345 51.724a798.329 798.329 0 0 0-104.896-9.724l-12.828-6.103c7.148-12.694 4.477-28.653-6.414-38.328-.155-17.172 7.862-31.862 4.604-39.155a831.647 831.647 0 0 0 119.534-10.138c5.69 0 10.345 23.172 10.345 51.724Z" fill="#F8E8AB"/><path d="M77.586 88.241 3.466 61.76a5.172 5.172 0 0 1 0-9.725L148.188.31a5.437 5.437 0 0 1 3.621 0l144.724 51.724a5.172 5.172 0 0 1 0 9.725l-33.103 11.844-14.328 5.121-26.689 9.517H77.586Z" fill="#393F4B"/><path d="m11.069 263.638-.724.155c.25.004.497-.049.724-.155ZM10.965 160.448a5.92 5.92 0 0 1-.62-.103c.21.009.418.044.62.103ZM11.017 160.448a822.5 822.5 0 0 0 112.5 9.88c3.414 7.551 16.138 23.431 16.138 41.741 0 1.241 0 2.431-.052 3.621a31.036 31.036 0 0 0-1.138 32.276l-12.775 5.793a840.31 840.31 0 0 0-114.621 9.879l-.052-103.19Z" fill="#F8E8AB"/><path d="M129.258 215.69c.052-1.19.052-2.38.052-3.621a118.75 118.75 0 0 0-5.793-41.741c8.483.258 17.328.362 26.483.362 6.879 0 13.603-.052 20.121-.207a113.447 113.447 0 0 1 5.689 39.155l-46.552 6.052ZM155.173 263.793l-13.759 32.948a5.172 5.172 0 0 1-9.569.155l-3.776-8.689-8.69 3.724a5.136 5.136 0 0 1-6.827-6.621l13.138-31.551 2.431-5.794 27.052 15.828Z" fill="#BA3A23"/><path d="m182.224 247.965 2.535 6.104 13.034 31.241a5.135 5.135 0 0 1-6.828 6.621l-8.689-3.724-3.776 8.689a5.173 5.173 0 0 1-9.569-.155l-13.759-32.948 27.052-15.828Z" fill="#BA3A23"/><path d="M77.586 124.138V67.241c0-8.586 32.431-15.517 72.414-15.517 39.983 0 72.414 6.931 72.414 15.517v56.897H77.586Z" fill="#464F5E"/><path d="M258.621 77.586a5.173 5.173 0 0 1-5.172-5.172V38.483a5.172 5.172 0 0 1 10.345 0v33.93a5.173 5.173 0 0 1-5.173 5.173Z" fill="#EDC100"/><path d="M248.276 82.759v15.517a5.172 5.172 0 0 0 5.172 5.172h10.345a5.172 5.172 0 0 0 5.173-5.172V82.759c0-5.714-4.632-10.345-10.345-10.345-5.714 0-10.345 4.631-10.345 10.345Z" fill="#F1D24B"/><path d="M150 139.655c39.993 0 72.414-6.947 72.414-15.517S189.993 108.621 150 108.621s-72.414 6.947-72.414 15.517 32.421 15.517 72.414 15.517Z" fill="#393F4B"/><path d="M20.69 212.069c0 27.31-4.242 49.707-9.621 51.569a1.647 1.647 0 0 1-.724.155C4.655 263.793 0 240.621 0 212.069c0-28.552 4.655-51.724 10.345-51.724a.19.19 0 0 1 .155.052c.104 0 .259.051.466.051h.051c5.38 1.811 9.673 24.207 9.673 51.621Z" fill="#E2BE50"/><path d="M186.207 232.759c0 17.14-13.894 31.034-31.034 31.034s-31.035-13.894-31.035-31.034 13.895-31.035 31.035-31.035a30.402 30.402 0 0 1 20.638 7.914 30.832 30.832 0 0 1 10.396 23.121Z" fill="#E04C34"/></g><defs><clipPath id="a"><path fill="#fff" d="M0 0h300v300H0z"/></clipPath></defs></svg>
